X:22
T:Salterelle
C:Tielman Susato
B:Tielman Susato: "Danserye" (1551) no. 22
R:Ronde
Z:Transcribed by Frank Nordberg - http://www.musicaviva.com
F:http://abc.musicaviva.com/tunes/susato-tielman/susato-1551-22/susato-1551-22-4m.abc
M:3/2
L:1/2
K:F
V:1
F2G|A2A|A>B c/A/|B2G|G2G|G2G|G>A B/G/|A2F|
V:2
A,2E|F2F|F2E|G2E|D2D|E2E|ED2|F2D|
V:3
A,2C|C2C|C2C|D2C|B,2B,|C2C|C_B,2|C2B,|
V:4
F,2C,|F,2F,|F,>G,A,|G,2C,|G,2G,|C,2C,|C,G,2|F,2B,,|
%
V:1
F2G|A2A|A>B c/A/|B2G|G>A B/G/|A>GF|E>DE|F2F:|
V:2
C2E|F2F|F2E|G2E|E2D|F2C|C>DC|A,2A,:|
V:3
A,2C|C2C|C2C|D2C|C2B,|C>B,A,|G,2G,|F,2F,:|
V:4
F,2C,|F,2F,|F,>G,A,|G,2C,|C,2G,|F,2F,|C,>B,,C,|F,,2F,,:|
%
V:1
|:c2c|A2A|d2d|c2c|A>B c/A/|B>AG|F2E|F2F:|
V:2
|:F2F|F2F|F2F|F2F|F2F|F2D|CC2|A,2A,:|
V:3
|:A,2A,|C2C|B,2B,|A,2A,|C2C|D>CB,|A,G,2|F,2F,:|
V:4
|:F,2F,|F,2F,|B,,2B,,|F,2F,|F,2F,|B,,2B,,|F,C,2|F,,2F,,:|
W:
W:
W:  From Musica Viva - http://www.musicaviva.com
W:  the Internet center for free sheet music downloads.

